!!!OTL: Ritter und Magd En Aften jeg laa saa sildig i min Seng
!!!ARE: Nordeuropa, Daenemark
!!!YOR: 3, S. 65
!!    ????
!!!SCT: Q2055o
!!!YEM: Copyright 1995, estate of Helmut Schaffrath.
**kern
*ICvox
*Ivox
*M2/4
*k[f#]
*G:
{16g
=1
4b
8.g
16a
=2
4b
8dd
8b
=3
8b
8a
8a
8g
=4
4f#
8.r}
{16g
=5
4a
8.f#
16g
=6
4a
8b
8g
=7
2e
=8
4d
8.r}
{16g
=9
4g
8.r
16d
=10
4d
8.r
16B
=11
4e
8.d
16c
=12
4d
8.r}
{16d
=13
8.g
16f#
8.g
16a
=14
4b
8dd
8b
=15
2a
=16
4g
8.r}
==
!!!AGN: Ballade, Betrug, Schwangerschaft, Tod, Selbstmord, Herr und Magd
!! Daenische Fassung der Ballade.
!!    Dritte Zeile = Refrain auf sinnfreie Silben.
!!!ONB: ESAC (Essen Associative Code) Database: BALLADE
!!!AMT: simple duple
!!!AIN: vox
!!!EED: Helmut Schaffrath
!!!EEV: 1.0
*-
!!!title: @{OTL} [@{SCT}]
